public/compare.svg

<svg width="26" height="24" viewBox="0 0 26 24" fill="none" xmlns="http://www.w3.org/2000/svg">
<path d="M19.8459 7.35077L21.2083 6.55603C18.2606 1.49215 11.907 -0.442356 6.6374 2.11959V0.180847H5.06055V4.91142H9.79111V3.33456H7.77668C12.2371 1.44248 17.4085 3.16337 19.8459 7.35077Z" fill="#253D4E"/>
<path d="M5.45424 19.636C1.79855 16.6671 0.836373 11.4846 3.18278 7.40128L1.81565 6.61285C-0.860622 11.2732 0.152018 17.1777 4.22823 20.68H2.30053V22.2569H7.0311V17.5263H5.45424V19.636Z" fill="#253D4E"/>
<path d="M21.9834 10.0898L18.6389 13.4351L19.7537 14.5499L21.094 13.2097C20.5683 18.0945 16.452 21.8017 11.5391 21.8153V23.3922C17.3926 23.3768 22.2486 18.8593 22.6858 13.022L24.2138 14.5499L25.3287 13.4351L21.9834 10.0898Z" fill="#253D4E"/>
</svg>

<svg xmlns="http://www.w3.org/2000/svg" width="26" height="24" fill="none"><path fill="#253D4E" d="m19.846 7.35 1.362-.794A11.196 11.196 0 0 0 6.638 2.12V.18H5.06v4.731h4.73V3.335H7.777A9.62 9.62 0 0 1 19.846 7.35M5.454 19.636A9.6 9.6 0 0 1 3.183 7.401l-1.367-.788A11.196 11.196 0 0 0 4.228 20.68H2.301v1.577h4.73v-4.73H5.454zM21.983 10.09l-3.344 3.345 1.115 1.115 1.34-1.34a9.637 9.637 0 0 1-9.555 8.605v1.577a11.207 11.207 0 0 0 11.147-10.37l1.528 1.528 1.115-1.115z"/></svg>
